img/svg/icon_phone_header.svg

<svg width="23" height="32" viewBox="0 0 23 32" fill="none" xmlns="http://www.w3.org/2000/svg">
<path fill-rule="evenodd" clip-rule="evenodd" d="M21.1254 21.5082C19.9901 19.4343 17.3902 18.7286 15.3623 19.9569L14.5925 20.4199C13.6223 19.0268 12.674 17.497 11.7838 15.8769C10.8707 14.2258 10.0658 12.564 9.39122 10.9522L10.2632 10.4214C12.2438 9.22186 12.9242 6.63158 11.8151 4.58432L10.4713 2.16007C9.33908 0.091985 6.74732 -0.618325 4.71835 0.588609L1.77601 2.37647C-1.54107 4.39754 0.0334625 12.0991 4.46759 20.1674C8.95 28.2964 14.5658 33.6223 17.9843 31.5518C18.0117 31.5333 18.037 31.516 18.061 31.4997C18.1407 31.4454 18.2064 31.4007 18.2843 31.3502C18.3651 31.3107 18.3925 31.2975 18.4298 31.2803L18.579 31.201L20.915 29.785C22.8996 28.5615 23.5769 25.9768 22.4623 23.9197L21.1254 21.5082ZM16.9136 22.5251C17.4806 22.1817 18.1763 22.3705 18.4964 22.9553L19.833 25.3663C20.1814 26.0161 19.9622 26.8477 19.3492 27.2256L17.0907 28.5945C17.0558 28.6112 17.0175 28.6298 16.9663 28.6548C16.8855 28.6943 16.8582 28.7074 16.8208 28.7247L16.6281 28.8136L16.4677 28.9524C16.4535 28.9646 16.4308 28.9813 16.3524 29.0356C15.3171 29.6594 10.7296 25.3088 7.09705 18.7211C5.20132 15.2716 3.84869 11.7947 3.27971 9.01162C2.79542 6.64285 2.97681 5.15831 3.33655 4.93913L6.26526 3.15947C6.82011 2.82949 7.52174 3.02178 7.84227 3.60726L9.18293 6.02571C9.52767 6.66219 9.30998 7.49095 8.70512 7.85729L6.74433 9.05072L5.67406 9.70214L6.12438 10.871C6.93203 12.9675 7.95738 15.1588 9.15518 17.3248C10.3502 19.4997 11.6499 21.5293 12.9782 23.3131L13.7902 24.4038L16.9136 22.5251Z" fill="white"/>
</svg>

<svg width="23" height="32" fill="none" xmlns="http://www.w3.org/2000/svg"><path fill-rule="evenodd" clip-rule="evenodd" d="M21.125 21.508a4.112 4.112 0 00-5.763-1.551l-.77.463a50.75 50.75 0 01-2.808-4.543 50.647 50.647 0 01-2.393-4.925l.872-.53c1.98-1.2 2.661-3.79 1.552-5.838L10.471 2.16A4.128 4.128 0 004.718.59L1.776 2.376C-1.541 4.398.033 12.1 4.468 20.167c4.482 8.13 10.098 13.455 13.516 11.385l.077-.052c.08-.055.145-.1.223-.15a3.86 3.86 0 01.146-.07l.149-.079 2.336-1.416c1.985-1.224 2.662-3.808 1.547-5.865l-1.337-2.412zm-4.211 1.017a1.114 1.114 0 011.582.43l1.337 2.411c.348.65.13 1.482-.484 1.86l-2.258 1.369a17.57 17.57 0 00-.27.13l-.193.089-.16.138a1.645 1.645 0 01-.116.084c-1.035.623-5.622-3.727-9.255-10.315-1.896-3.45-3.248-6.926-3.817-9.71-.485-2.368-.303-3.853.057-4.072l2.928-1.78c.555-.33 1.257-.137 1.577.448l1.34 2.419c.346.636.128 1.465-.477 1.831l-1.96 1.194-1.07.651.45 1.169a52.396 52.396 0 003.03 6.454 52.146 52.146 0 003.823 5.988l.812 1.09 3.124-1.878z" fill="#fff"/></svg>
